X:1
T:Ave Maria
T:Loyset Compère
T:Pitch originally notated a 4th lower
T:Ave Maria
T:Copyright © 2018 CPDL Please forward corrections &c. to RichardMix@hotmail.com
T:Copyright © 2018 CPDL Please forward corrections &amp;c. to RichardMix@hotmail.com
T:Copyright © 2018 CPDL Please forward corrections &amp;c. to RichardMix@hotmail.com
T:Copyright © 2018 CPDL Please forward corrections &amp;c. to RichardMix@hotmail.com
T:Copyright © 2018 CPDL Please forward corrections &amp;c. to RichardMix@hotmail.com
T:Copyright © 2018 CPDL Please forward corrections &amp;c. to RichardMix@hotmail.com
T:Copyright © 2018 CPDL Please forward corrections &amp;c. to RichardMix@hotmail.com
T:Copyright © 2018 CPDL Please forward corrections &amp;c. to RichardMix@hotmail.com
T:Copyright © 2018 CPDL Please forward corrections &amp;c. to RichardMix@hotmail.com
T:Copyright © 2018 CPDL Please forward corrections &amp;c. to RichardMix@hotmail.com
T:Copyright © 2018 CPDL Please forward corrections &amp;c. to RichardMix@hotmail.com
T:Copyright © 2018 CPDL Please forward corrections &amp;c. to RichardMix@hotmail.com
T:Copyright © 2018 CPDL Please forward corrections &amp;c. to RichardMix@hotmail.com
T:Copyright © 2018 CPDL Please forward corrections &amp;c. to RichardMix@hotmail.com
T:Copyright © 2018 CPDL Please forward corrections &amp;c. to RichardMix@hotmail.com
C:Loyset Compère
Z:Pitch originally notated a 4th lower
Z:Copyright © 2018 CPDL
Z:Please forward corrections &c. to RichardMix@hotmail.com
%%score [ 1 2 3 4 ]
L:1/8
M:4/4
K:Bb
V:1 treble nm="P1" snm="S."
V:2 treble nm="P2" snm="A."
V:3 treble-8 transpose=-12 nm="P3" snm="T."
V:4 bass nm="P4" snm="B."
V:1
 [Fcf]2 ||[M:2/2] c8 c4 c4 c6 BA G8- | G8 G8 A8 G4 c4- | c2 d2 f8 d2 c2 B6 A2 G8- | G8 z8 z16 | %5
w: |A- ve Ma- ri- * * a,|* gra- ti- a ple-|* * * * * * * na,||
 z4 G8 A4 G4 c6 d2 e4- | e4 d2 c2 B4 c4 d12 e4- | e2 d2 c2 B2 c4 G4 A8 A4 A4 | A8 G24- | %9
w: Do- mi- nus te- * *||* * * * * cum, Vir- go se-|re- na.|
 G8 z8 G8 G4 G4 | G8 G16 z8 | z32 | z16 G16 | F4 G4"^b" _A8 G8 F8 | z4 F4 G4 G4 =A8 G8 | %15
w: _ Be- ne- di-|cta tu||in|mu- li- e- ri- bus,|et be- ne- di- ctus|
 G8 G4 G4 A8 c8 | B8 z8 z16 | z8 c4 c4 B8 A8 | G8 z8 G2 A2 B2 c2 d4 c4- | c4 B4 c8 c4 c4 B4 A2 G2 | %20
w: fru- ctus ven- tris tu-|i.|Ky- ri- e\_e- lei-|son. Chri- * * * * ste|_ e- lei- son. Ky- ri- e e-|
 A8 G8 e16 | d4 c4 B4 c4 c8 z8 | z8 B8 B4 B4 c8 | d16 z16 | z16 z8 B8 | c4 c4 d8 B8 c8 | %26
w: lei- son. O|Chri- ste au- di nos.|San- cta Ma- ri-|a,|o-|ra pro no- bis ad|
 B4 A4 G8 e16 | d4 c4 B4 c4 c8 z8 | z16 z8 B8 | c4 c4 d8 B6 A2 G4 d4- | d4 c8"^#" =B4 c8 z8 | %31
w: Do- mi- num. O|Chri- ste au- di nos.|o-|ra pro no- bis * * ad|_ Do- mi- num.|
 z16 z8 c4 c4 | c4 c4 c8 d8 e8 | B8 c4 c4 d8 e8 | z4 c8 B4 c4 d6 c2 c4- | c4"^#" =B4 c8 d16 | %36
w: San- cta|De- i Ge- ni- trix,|o- ra pro no- bis|ad * Do- * * *|* mi- num. O|
 d8 c8 _B8 c8 | (5:4:4c6 BA A2 x24 ||"^Secunda pars" B8 B4 c4 d8 e8- | e8 B8 c4 c4 d8- | %40
w: Chri- ste au- di|nos. * * *|San- cte Mi- cha- el,|_ o- ra pro no-|
 d8 B8 c6 d2 e4 d4- | d2 c2 c8"^#" =B4 c8 z8 | z16 e16 | d4 c4 B4 c4 c16 | z32 | %45
w: * bis ad * * Do-|* * * mi- num.|O|Chri- ste au- di nos.||
 B4 B4 B4 B4 B6 B2 B4 B4 | B4 B4 B4 B4 c16 | d16 z16 | z16 B8 B4 B4 | c8 d8 B8 c8 | %50
w: Om- nes san- cti An- ge- li et|Arch- an- ge- li De-|i,|o- ra- te|pro no- bis ad|
 B4 A4 G4 B4 A8 G4 F4 | G8 G8 z8 B4 B4 | B4 B4 c8 d8 z8 | z16 B4 B4 B4 B4 | c8 d8 z16 | %55
w: Do- mi- num. O Chri- ste au-|di nos. San- cte|Ni- co- la- e,|San- cte Au- gu-|sti- ne,|
 z8 B4 B4 B4 B4 c6 c2 | d8 z8 z8 z8 | z8 B4 B4 B8 B8 | z4 G4 G4 G4 A8 B8- | B8 z4 G4 G4 G4 A8 | %60
w: om- nes san- cti Mar- ty-|res,|om- nes San- cti|et San- ctae De- i,|_ o- ra- te pro|
 B8 G4 d6 c2 c8"^#" =B4 | c8 e8 d4 c4 _B4 c4 |[M:3/2]"^[i.e. 3 w in the time of 2]" c8 c4 c8 c4 | %63
w: no- bis ad * Do- mi-|num. O Chri- ste au- di|nos. Be- a- ta|
 c8 B4 e6 c2 d4 | e8 e8 f8 | d8 e8 c8 | d8 c4 c4 e8 | c4 e8 e4 e4 d4 | e8 e4 d8 c4 | d8 e8 c8 | %70
w: es, Ma- ri- * *|a, Vir- go|dul- cis et|pi- a, can- do-|re vin- cis li- li-|a, et ro- sa|si- ne spi-|
 d8 c4 c8 c4 | d8 c4 c6 A2"^#" =B4 |[M:2/2] c8 _B8 d8 c8 | B8 c8 B2 x30 c16 c2 x30 |] %74
w: na, San- cto- rum|me- lo- di- * *|a. O Chri- ste|au- di nos. A- men.|
V:2
 [G,Ec]2 ||[M:2/2] z32 | E8 E4 E4 F8 G8 | E16 D8 E8 | C8 B,4 C6 B,2 E8 D4 | E16 z16 | %6
w: ||A- ve Ma- ri- *|a, gra- *|ti- a ple- * * *|na,|
 E8 E4 E4 F8 G8 | E16 z16 | D8 E8 C8 B,4 C4- | C2 B,2 E8 D4 E16 | z16 z4 E4 G4"^b" _A4 | %11
w: Do- mi- nus te- *|cum,|Vir- * go se- re-|* * * * na.|Be- ne- di-|
 B16 G4"^b" _A4 G4 F4- | F2 E2 E8 D4 E12 F2 G2 |"^b" _A4 G6 F2 F8"^§" =E4 F8 | %14
w: cta tu in mu- li-|* * e- * * * *|* * * * ri- bus,|
 z4 F4 _E4 E4 F8 E8- | E8 z8 F8 F4 F4 | G2 F2 E2 D2 E4 D6 C2 C8"^#" =B,4 | C8 z8 z16 | %18
w: et be- ne- di- ctus|_ fru- ctus ven-|tris * * * * tu- * * *|i.|
 z16 D6 E2 F8 | D8 C8 z16 | z32 | z32 | z16 E8 E4 E4 | F8 G16 z8 | z8 E8 F4 F4 G8 | E8 z8 z16 | %26
w: Ky- ri- e\_e-|lei- son.|||San- cta Ma-|ri- a,|o- ra pro no-|bis|
 F8 E4 D4 C8 G8 | F4 E4 D4 C4 C8 z8 | z32 | E8 F4 F4 G8 E4 F4- | F4 E8 D4 C8 z8 | z16 z8 G4 G4 | %32
w: ad Do- mi- num. O|Chri- ste au- di nos.||o- ra pro no- bis ad|_ Do- mi- num.|San- cta|
 G4 G4 A6 A2 B16 | z4 E4 E4 E4 D8 C4 B,4 | C8 D8 C4 B6 A2 G2 F2 | G8 E8 B16 | B8 G8 G8 E8 | %37
w: De- i Ge- ni- trix,|o- ra pro no- bis ad|Do- * * * * * *|mi- num. O|Chri- ste au- di|
 F2 x30 || G8 G4 G4 B8 B8- | B8 G8 G4 A4 B8 | B,6 C2 D4 E6 F2 G4 E4 B4- | B2 A2 G2 F2 G8 E8 z8 | %42
w: nos.|San- cte Mi- cha- el,|_ o- ra pro no-|bis * * ad * * Do- *|* * * * mi- num.|
 z16 G16 | F4 E4 D4 C4 C16 | z16 E4 E4 E4 E4 | F6 F2 G24- | G8 G8 G4 G8 G4 | A8 B16 G8- | %48
w: O|Chri- ste au- di nos.|Om- nes san- cti|An- ge- li|_ et Arch- an- ge-|li De- i,|
 G8 z8 z16 | z16 G8 E4 C4 | F8 E8 F8 z8 | E4 E4 E4 E4 F8 G8- | G8 z8 B,8 B,4 B,4 | C8 D8 z8 z8 | %54
w: _|o- ra- te|pro no- bis|San- cte Lu- do- vi- ce,|_ San- cte Quin-|ti- ne,|
 z8 B,8 B,4 B,4 C8 | D8 z8 z8 z8 | B,4 B,4 B,4 B,4 B,4 B,4 C8 | D16 z8 z8 | E4 C8 C4 C8 D8- | %59
w: San- cte An- tho-|ni,|om- nes san- cti Con- fes- so-|res,|et San- ctae De- i,|
 D8 z4 B,4 B,4 B,4 C8 | E8 B,8 z4 G4 G4 G4 | E8 B8 B4 G4 G4 G4 |[M:3/2] E8 C8 E8 | C8 G,4 B,4 B,8 | %64
w: _ o- ra- te pro|no- bis ad Do- mi-|num. O Chri- ste au- di|nos. Be- a-|ta es, Ma- ri-|
 B,8 E4 E4 C8 | B,8 E8 E8 | B8 G4 G8 E4 | G8 G4 E4 B8 | G8 B4 B8 c4 | B8 G8 E8 | B8 G4 G8 A4 | %71
w: a, Vir- go dul-|cis et pi-|a, can- do- re|vin- cis li- li-|a, et ro- sa|si- ne spi-|na, San- cto- rum|
 B8 G4 G6 F2 G4 |[M:2/2] E8 E8 D8 G8 | G8 F8 G2 x30 G16 G2 x30 |] %74
w: me- lo- di- * *|a. O Chri- ste|au- di nos. A- men.|
V:3
 [Be!courtesy!_a]2 ||[M:2/2] z32 | z16 c8 c4 c4 | c8 c8 z16 | z32 | z8 c8 c4 c4 c8 | c8 z8 z16 | %7
w: ||A- ve Ma-|ri- a,||gra- ti- a ple-|na,|
 c8 c4 c4 c8 c8 | z32 | z16 z8 c8 | c4 c4 c8 c8 z8 | z32 | z16 z8 c8 | c4 c4 c4 c4 c8 z4 c4 | %14
w: Do- mi- nus te- cum||Be-|ne- di- cta tu||in|mu- li- e- ri- bus. Et|
 c4 c4 c8 c8 c8 | c4 c4 c4 c4 c4 c4 c8 | z32 | z8 e4 f4 g8 f8 | g8 c8 z16 | z16 e4 f4 g8 | %20
w: be- ne- di- ctus fru-|ctus ven- tris tu- i, Je- sus.||Ky- ri- e\_e- lei-|* son,|Ky- ri- e\_e-|
 f8 g8 c8 z8 | z16 z8 e8 | e4 e4 f8 g16 | z16 e8 f4 f4 | g8 e8 z16 | z8 f8 e4 d4 c4 e4 | %26
w: lei- * son.|San-|cta Ma- ri- a,|o- ra pro|no- bis|ad Do- mi- num. O|
 d4 c4 B8 c8 c8 | z16 z8 e4 e4 | e4 e4 f12 f4 g8- | g8 z8 z16 | z16 z8 e8 | d4 c4 B4 c4 c8 e4 e4 | %32
w: Chri- ste au- di nos.|San- cta|De- i Ge- ni- trix,||O|Chri- ste au- di nos. San- cta|
 e4 e4 f12 f4 g8- | g8 z8 z8 e8 | f4 f4 g8 e4 f8 e4- | e4 d4 c8 g16 | f8 e8 d8 c8 | c2 x30 || %38
w: Vir- go vir- gi- num,|_ o-|ra pro no- bis ad Do-|* mi- num. O|Chri- ste au- di|nos.|
 e8 e4 e4 f8 g8- | g8 z8 e8 f4 f4 | g16 e8 z4 f4- | f4 e8 d4 c8 e8 | d4 c4 B4 c4 c8 z8 | %43
w: San- cte Mi- cha- el,|_ o- ra pro|no- bis ad|_ Do- mi- num. O|Chri- ste au- di nos.|
 z16 e8 e4 e4 | f8 g16 z8 | z8 e4 e4 e4 e4 e6 e2 | e8 e4 e4 e6 e2 e8 | f16 g8 e8 | e4 e4 f16 g8 | %49
w: San- cte Ga-|bri- el,|Om- nes san- cti An- ge-|li et Arch- an- ge- li|De- i, o-|ra- te pro no-|
 e8 f8 e4 d4 c4 e4 | d4 c4 B4 c4 c16 | z32 | e4 e4 e4 e4 f8 g8 | z16 z8 e4 e4 | e4 e4 f8 g8 z8 | %55
w: bis ad Do- mi- num. O|Chri- ste au- di nos.||San- cte Ni- co- la- e,|San- cte|Be- ne- di- cte,|
 z16 e4 e4 e4 e4 | f4 f4 g16 z8 | z32 | e4 e4 e4 e4 f8 g8- | g8 z4 e4 e4 e4 f8 | g8 e4 f8 e8 d4 | %61
w: om- nes san- cti|Mar- ty- res,||cti et San- ctae De- i,|_ o- ra- te pro|no- bis ad Do- mi-|
 c8 g8 f4 e4 d4 c4 |[M:3/2] c8 c4 e8 c4 | e8 g4 g6 e2 f4 | e8 g4 g4 f4"^b" _a4 | %65
w: num. O Chri- ste au- di|nos. Be- a- ta|es, Ma- ri- * *|a, Vir- go * dul-|
 g4 f4 g4 e6 d2 c4 | B8 c4 e8 c4 | e8 g4 g8 f4 | e8 g4 g4 f4"^b" _a4 | g4 f4 g4 e6 d2 c4 | %70
w: cis * et pi- * *|a, can- do- re|vin- cis li- li-|a, et ro- * sa|si- * ne spi- * *|
 B8 c4 e8 e4 | f8 c4 e6 c2 d4 |[M:2/2] c8 g8 f8 e8 | d8 c8 d2 x30 c16 c2 x30 |] %74
w: na, San- cto- rum|me- lo- di- * *|a. O Chri- ste|au- di nos. A- men.|
V:4
 [B,,G,E]2 ||[M:2/2] z16 C8 C4 C4 | C6 B,A, G,8 F,8 E,8 | C,6 D,2 E,6 F,2 G,8 z4 C,4- | %4
w: |A- ve Ma-|ri- * * a, * *|* * * * * gra-|
 C,2 D,2 E,2 F,2 G,4"^b" _A,6 G,2 F,2 E,2 F,8 | E,8 C,16 z4 C4- | C2 D2 E6 D2 C4 B,6 A,2 G,8 | %7
w: * * * * * ti- * * * a|ple- na, Do-|* * mi- * nus te- * cum,|
 z16 F,8 F,4 F,4 | F,8 E,16 E,8 | E,4 E,4 F,8 E,8 C,8 | z16 z4 C4 C4 C4 | %11
w: Do- mi- nus|te- cum Vir-|go se- re- na. *|Be- ne- di-|
 B,8 G,4 G,4 G,4 F,4 E,4 B,4 |"^b" _A,2 G,2 F,2 E,2 F,8 E,8 C,8 | F,4 E,4 F,8 C,8 F,8 | %14
w: cta tu in mu- * li- *|e- * * * * * *|* * * ri- bus,|
 z4 F,4 C,4 C,4 F,8 C,8 | z8 C,8 F,8 A,8 | G,6 F,2 G,4 F,6 E,2 D,2 C,2 D,8 | C,8 z8 z16 | %18
w: et be- ne- di- ctus|fru- ctus ven-|tris * * tu- * * * *|i.|
 z8 E,4 F,4 G,8 F,8 | G,8 C,8 z16 | z32 | z16 z8 C8 | C4 C4 B,8 E,16 | B,16 C4 C4 D8 | %24
w: Ky- ri- e\_e- lei-|* son.||San-|cta Ma- ri- a,|o- ra pro no-|
 B,8 C8 B,4 A,4 G,8 | z16 z8 A,8 | B,4 F,4 G,4 G,4 C,8 z8 | z16 z8 C4 C4 | C4 C4 B,8 A,8 G,8 | %29
w: bis ad Do- mi- num.|O|Chri- ste au- di nos.|San- cta|De- i Ge- ni- trix,|
 z32 | z16 z8 G,8 | F,4 E,4 D,4 C,4 C,8 C4 C4 | C4 C4 E,8 B,8 E,8- | E,8 z8 B,8 C4 G,4 | %34
w: |O|Chri- ste au- di nos. San- cta|Vir- go vir- gi- num,|_ o- ra pro|
 A,8 G,8 C4 B,8 C4 | G,8 z8 E,16 | B,8 C8 G,8 C,8 | F,2 x30 || E,8 E,4 E,4 B,8 E,8- | %39
w: no- bis ad Do- mi-|num. O|Chri- ste au- di|nos.|San- cte Mi- cha- el,|
 E,8 G,8 C4 C4 B,8 | G,16 z4 C8 B,4- | B,4 C4 G,8 z8 G,8 | F,4 E,4 D,4 C,4 C,8 z8 | z32 | %44
w: _ o- ra pro no-|bis ad Do-|* mi- num. O|Chri- ste au- di nos.||
 B,8 B,4 B,4 C16 | D8 z8 z16 | z32 | z8 B,8 B,4 B,4 C8- | C8 D8 B,8 G,8 | C8 B,6 A,2 G,8"^b" _A,8 | %50
w: San- cte Ra- pha-|el,||o- ra- te pro|_ no- bis *|ad Do- mi- num. O|
 B,4 F,4 G,4 G,4 F,8 C,4 F,4 | E,4 C,4 C8 B,4 A,4 G,8 | E,8 z8 z8 E,8 | E,4 E,4 F,8 G,8 z8 | %54
w: Chri- ste au- di nos. San- *|* * * cte Fran- ci-|sce. San-|cte Mar- ti- ne,|
 z16 E,4 E,4 E,4 E,4 | F,8 G,8 z16 | z8 E,4 E,4 E,4 E,4 E,4 E,4 | F,8 G,8 E,4 E,4 E,8 | %58
w: San- cte Ni- co-|la- e,|om- nes san- cti Con- fes-|so- res, om- nes San-|
 E,4 E,4 G,4 G,4 F,8 E,8- | E,8 z4 G,4 G,4 G,4 F,4 F,4 | E,8 E,4 B,8 C4 G,8 | %61
w: cti et San- ctae De- i,|_ o- ra- te pro no-|bis ad Do- mi- num.|
 z8 E,8 B,4 C4 G,4 C,4 |[M:3/2] C,8 C,4 C,8 C,4 | C,8 E,8 B,,8 | E,8 C,8 F,8 | B,8 E,8 A,8 | %66
w: O Chri- ste au- di|nos. Be- a- ta|es, Ma- ri-|a, Vir- go|dul- cis et|
 G,8 C,8 C8 | C4 C4 C8 B,8 | C8 G,4 B,8 F,4 | B,8 E,4 E,4 A,8 | G,8 C,4 C4 C4 C4 | B,8 C8 G,8 | %72
w: pi- a, can-|do- re vin- cis|li- li- a, et|ro- sa si- ne|spi- na, San- cto- rum|me- lo- di-|
[M:2/2] C,8 E,8 B,8 C8 | G,8 A,8 G,2 x30 C,16 C,2 x30 |] %74
w: a. O Chri- ste|au- di nos. A- men.|

